emblems/png/misgav-logo.svg

<svg height="714.24017" width="725.81793" xmlns="http://www.w3.org/2000/svg"><g transform="translate(-10.398166 -174.86404)"><path d="m712.87563 764.16872-81.7019-328.03674-19.09256 100.28173-11.82161-.13396-57.41208-230.42914-30.91417 152.36285-68.45286-267.18701-44.16321 284.85231 13.24895 287.0604z" fill="#1b7f37" fill-rule="evenodd"/><path d="m438.07412 763.2542h-359.122719v-59.33337h-52.128779l139.567348-83.8605v-66.03413h-60.88522l193.71246-145.97276 193.71238 145.97276h-54.85547z" fill="#8b8cc2" fill-rule="evenodd"/><path d="m384.12085 601.75638c-5.16298.04101-10.19263.43675-15.14908 1.20306l3.4338 23.36044c-6.44562 1.01053-12.7426 2.68454-18.5828 5.12828l-8.83531-21.80168c-9.11294 3.79982-17.63514 8.83008-25.21808 14.92594l14.87427 18.72191c-4.98042 4.01667-9.63503 8.46039-13.53523 13.53383l-18.73756-14.36021c-5.95326 7.73867-10.69899 16.21732-14.30696 25.45031l21.93921 8.48784c-2.29317 5.82271-3.73564 12.05507-4.61763 18.44359l-23.41194-3.06236c-.65632 4.86053-1.22239 9.68889-1.18226 14.73497.03821 4.8107.52682 9.65007 1.19625 14.28301l23.36035-3.43389c.93961 6.44894 2.53869 12.72869 4.91177 18.58454l-21.80158 8.83523c3.73284 9.2322 8.63185 17.74295 14.71101 25.43632l18.50542-14.87251c4.0143 5.11515 8.63674 9.73978 13.75207 13.75006l-14.36021 18.73765c7.62945 5.93962 16.12927 10.87526 25.23547 14.52512l8.70434-21.94096c5.83486 2.33986 12.03627 4.13226 18.44709 5.05072l-3.06402 23.19552c5.04109.70904 10.142 1.21872 15.38455 1.17702 4.79356-.03804 9.4494-.52962 14.06651-1.1945l-3.43398-23.36035c6.43259-.92047 12.74068-2.34852 18.58629-4.69519l8.83357 21.585c9.24305-3.73389 17.9514-8.62731 25.65282-14.71277l-14.87252-18.50532c5.14166-4.05156 9.94728-8.58874 13.96674-13.75383l18.52098 14.36187c6.07226-7.79978 11.06404-16.33203 14.73821-25.67021l-21.94088-8.70442c2.34782-5.96139 3.96438-12.32631 4.83064-18.87834l23.19727 3.28052c.63682-4.79155 1.2217-9.76357 1.18226-14.73498-.04013-5.04608-.68281-9.86499-1.41624-14.71433l-23.36035 3.43388c-1.00869-6.53769-2.64869-12.88276-5.13011-18.79929l21.80158-8.83532c-3.83427-9.24724-8.73354-17.75973-14.92751-25.43465l-18.50716 14.6561c-4.05619-5.00673-8.83978-9.40699-13.96508-13.31541l14.57671-18.73931c-7.76787-5.95063-16.40382-10.92991-25.66855-14.52162l-8.70268 22.15755c-5.90341-2.26842-12.18745-3.79449-18.66018-4.61597l3.27711-23.63028c-4.68784-.60796-9.43925-.79123-14.29839-.75258zm.66908 84.2336c10.96524-.087 19.99266 8.79807 20.07983 19.7633.08709 10.96523-8.7999 19.77616-19.76505 19.86325-10.96515.08717-19.99099-8.58158-20.07808-19.54672-.087-10.96506 8.79816-19.99274 19.7633-20.07983z" fill="#ccd1d5"/><path d="m422.86328 583.58816-.80078-2.16309h.91309l.38086 1.14258c.15299-.33528.39225-.6193.71777-.85205.32552-.23274.67545-.34912 1.0498-.34912.39714 0 .73975.10173 1.02784.30517.28808.20346.49722.5005.62744.89112.1302.39062.1953.97819.19531 1.76269v2.28027h-2.6709v-.78125h1.72852v-1.51855c-.00001-.57291-.01873-.99039-.05616-1.25244-.03743-.26204-.13346-.47526-.28808-.63965-.15463-.16438-.34913-.24658-.5835-.24658-.36458 0-.67464.18799-.93017.56396-.25554.37598-.47282 1.02784-.65186 1.95557l-.36621 1.91894h-.94238l.41015-2.02148c.03906-.19205.11882-.52409.23926-.99609zm-1.94336-2.16309v5.18066h-.95215v-5.18066zm-5.45898 4.55078-.89844-4.55078h.98145l.7666 4.2627c.55338-.2181.90006-.53142 1.04004-.93995.13997-.40852.20995-.92203.20996-1.54052l.04883-1.78223h.94238l-.04883 1.37207c-.02605.66081-.05453 1.12468-.08545 1.3916-.03093.26693-.11556.56071-.25391.88135s-.34098.59896-.60791.83496-.65836.45166-1.17431.64697c-.51595.19532-1.25244.37272-2.20947.53223l-.13184-.81055c.58268-.08463 1.05631-.18392 1.4209-.29785zm-2.08008-4.55078-.04883.93262c-.01628.30925-.05127.55908-.10498.74951s-.16683.38656-.33935.58838c-.17253.20182-.4476.41178-.8252.62988l1.1084 1.72852v.55175h-3.73047v-.78125h2.60254l-2.86133-4.39941h1.05957l1.44043 2.29981c.24414-.17904.41829-.37028.52246-.57374.10417-.20344.15625-.49234.15625-.86669l.04883-.85938zm-9.53125.09277c.58919-.1009 1.16211-.15136 1.71875-.15136 1.08073 0 1.82779.2002 2.24121.60058.41341.4004.62011 1.014.62012 1.84082v2.79785h-.93262v-2.54882c0-.51758-.06023-.89762-.18066-1.14014-.12045-.24251-.32797-.42643-.62256-.55176-.2946-.12532-.72348-.18798-1.28662-.18799-.44271.00001-.93588.04558-1.4795.13672zm.99121 2.16797v2.91992h-.93262v-2.91992zm-4.76074 2.91992h-1.15235l-1.97753-2.79785c-.306.16602-.48666.50131-.542 1.00586l-.20996 1.79199h-.96679l.20996-1.79199c.09765-.83333.43619-1.39648 1.01562-1.68945l-1.20605-1.69922h1.14746l1.66015 2.31934c.20182-.13346.34261-.28402.42237-.45166.07975-.16764.14241-.44352.18799-.82764l.12207-1.04004h.96679l-.11719 1.06934c-.05208.45898-.15544.83577-.31005 1.13037-.15463.2946-.42237.55745-.80323.78857zm-5.58594-4.52148c-.49805 0-.88786.14242-1.16943.42725-.28158.28483-.42237.6665-.42237 1.14502 0 .0944.01465.27832.04395.55175.08463.78777.12695 1.34766.12695 1.67969v.71777h-.9375v-.8496c0-.34506-.03255-.87565-.09765-1.5918-.02279-.24088-.03418-.44108-.03418-.60059 0-.5371.21972-.98958.65918-1.35742h-1.3086v-.78125h3.13965zm-4.35547-.65918v5.18066h-.95215v-5.18066zm-6.61133.04883c.50131-.07161.96192-.10742 1.38184-.10742 1.04817 0 1.77815.20264 2.18994.60791.41178.40527.61767 1.01644.61768 1.83349v2.79785h-.92774v-2.54882c0-.47201-.05046-.82845-.15136-1.06934-.10092-.24088-.2946-.43619-.58106-.58594-.28646-.14973-.68685-.2246-1.20117-.22461-.34831.00001-.76498.03256-1.25.09766zm-.94726-.04883v2.68066h-.95215v-2.68066zm-7.93946 5.05859.16114-.69824c.16927.0586.35319.08789.55176.08789.2246 0 .37923-.04964.46386-.14892.08464-.09929.12695-.27914.12696-.53955v-2.98828c-.27995 0-.62338.0293-1.03028.08789l-.08301-.77637c.74219-.0944 1.49577-.1416 2.26075-.1416.77473 0 1.37044.06511 1.78711.19531.41666.13021.73485.36866.95459.71533.21972.34669.32958.85694.32959 1.53076v2.79785h-.93262v-2.54882c-.00001-.50456-.03825-.87402-.11475-1.1084-.0765-.23437-.24333-.4248-.50049-.57129-.25716-.14648-.68197-.21972-1.27441-.21973l-.46875.00977v3.13965c0 .32552-.03011.57454-.09033.74707-.06023.17252-.18555.31412-.37598.4248s-.47445.16602-.85205.16602c-.30599 0-.61035-.05371-.91309-.16114zm-7.79296-2.8955-.80078-2.16309h.91308l.38086 1.14258c.15299-.33528.39225-.6193.71777-.85205.32552-.23274.67546-.34912 1.04981-.34912.39713 0 .73974.10173 1.02783.30517.28808.20346.49723.5005.62744.89112.1302.39062.19531.97819.19531 1.76269v2.28027h-2.67089v-.78125h1.72851v-1.51855c0-.57291-.01872-.99039-.05615-1.25244-.03744-.26204-.13347-.47526-.28809-.63965-.15462-.16438-.34912-.24658-.58349-.24658-.36459 0-.67465.18799-.93018.56396-.25553.37598-.47282 1.02784-.65185 1.95557l-.36622 1.91894h-.94238l.41016-2.02148c.03906-.19205.11881-.52409.23926-.99609zm-6.70899-2.16309.01953.83984c.01953.86264.05697 1.45997.11231 1.792.34505 0 .65592-.08626.93261-.25879s.41504-.49967.41504-.98145l.10254-1.3916h.9375l-.11718 1.63086c-.01954.2767-.05046.48666-.09278.62988-.04232.14323-.1294.2946-.26123.4541-.13184.15951-.34017.29867-.625.41748-.28483.11882-.66813.19776-1.1499.23682.08138.35157.27018.63314.56641.84473.29622.21159.6608.31738 1.09375.31738.40038 0 .74381-.09521 1.03027-.28564.28645-.19043.49804-.4362.63476-.73731.13672-.3011.22786-.72998.27344-1.28662l.20996-2.22168h.9375l-.17578 1.91895c-.06836.7194-.19043 1.31836-.36621 1.79687-.17579.47852-.48096.86589-.91553 1.16211s-.99528.44434-1.68213.44434c-.60872 0-1.11898-.1473-1.53076-.4419-.41178-.29459-.7194-.71533-.92285-1.26221-.20345-.54687-.30517-1.27603-.30517-2.1875l-.06836-1.43066zm-2.26562 1.83106v1.59179l.47851 1.75781h-.91308l-.35645-1.26953c-.40039 0-.73405.24252-1.00098.72754l-.28808.54199h-.95215l.41016-.80078c.24414-.47526.52734-.78694.84961-.93506.32226-.14811.60221-.22216.83984-.22216v-1.36231c0-.27994-.02035-.49234-.06104-.6372s-.13102-.26123-.27099-.34913c-.13998-.08788-.32552-.13183-.55664-.13183-.19857 0-.37598.01628-.53223.04883l-.06836-.74219c.2181-.07161.48503-.10742.80078-.10742.44271 0 .78125.08301 1.01563.24902.23437.16602.39388.37028.47851.61279.08464.24252.12695.58513.12696 1.02784zm-4.20899 2.56835h.8252v.78125h-4.95606v-.78125h3.19825v-1.76757c-.00001-.48177-.05372-.84391-.16114-1.08643-.10742-.24251-.30192-.43538-.58349-.57861-.28158-.14323-.72022-.21484-1.31592-.21485-.21159.00001-.53874.02279-.98145.06836l-.07812-.77148c.43945-.07161.90657-.10742 1.40137-.10742.93098 0 1.60562.20182 2.02392.60547.41829.40365.62744 1.01562.62744 1.83593z" fill="#8b8cc2" transform="matrix(8.6377252 0 0 8.6377252 -2968.2977 -4198.1307)"/></g></svg>

<?xml version="1.0" encoding="UTF-8" standalone="no"?>
<!-- Created with Inkscape (http://www.inkscape.org/) -->
<svg xmlns:dc="http://purl.org/dc/elements/1.1/" xmlns:cc="http://creativecommons.org/ns#" xmlns:rdf="http://www.w3.org/1999/02/22-rdf-syntax-ns#" xmlns:svg="http://www.w3.org/2000/svg" xmlns="http://www.w3.org/2000/svg" xmlns:sodipodi="http://sodipodi.sourceforge.net/DTD/sodipodi-0.dtd" xmlns:inkscape="http://www.inkscape.org/namespaces/inkscape" width="725.81793" height="714.24017" id="svg2" sodipodi:version="0.32" inkscape:version="0.45+devel+devel" sodipodi:docname="misgav.svg" inkscape:output_extension="org.inkscape.output.svg.inkscape" version="1.0">
  <defs id="defs4">
    <inkscape:perspective sodipodi:type="inkscape:persp3d" inkscape:vp_x="-50 : 600 : 1" inkscape:vp_y="0 : 1000 : 0" inkscape:vp_z="700 : 600 : 1" inkscape:persp3d-origin="300 : 400 : 1" id="perspective10"/>
    <inkscape:perspective id="perspective2395" inkscape:persp3d-origin="300 : 400 : 1" inkscape:vp_z="700 : 600 : 1" inkscape:vp_y="0 : 1000 : 0" inkscape:vp_x="-50 : 600 : 1" sodipodi:type="inkscape:persp3d"/>
  </defs>
  <sodipodi:namedview id="base" pagecolor="#ffffff" bordercolor="#666666" borderopacity="1.0" gridtolerance="10000" guidetolerance="10" objecttolerance="10" inkscape:pageopacity="0.0" inkscape:pageshadow="2" inkscape:zoom="0.49497475" inkscape:cx="383.61981" inkscape:cy="432.42062" inkscape:document-units="px" inkscape:current-layer="layer1" showgrid="false" showguides="true" inkscape:guide-bbox="true" inkscape:object-nodes="false" inkscape:window-width="1024" inkscape:window-height="712" inkscape:window-x="-4" inkscape:window-y="-4"/>
  <metadata id="metadata7">
    <rdf:RDF>
      <cc:Work rdf:about="">
        <dc:format>image/svg+xml</dc:format>
        <dc:type rdf:resource="http://purl.org/dc/dcmitype/StillImage"/>
      </cc:Work>
    </rdf:RDF>
  </metadata>
  <g inkscape:label="Layer 1" inkscape:groupmode="layer" id="layer1" transform="translate(-10.398166,-174.86404)">
    <g id="g3561">
      <path sodipodi:nodetypes="cccccccccc" id="path2599" d="M 712.87563,764.16872 L 631.17373,436.13198 L 612.08117,536.41371 L 600.25956,536.27975 L 542.84748,305.85061 L 511.93331,458.21346 L 443.48045,191.02645 L 399.31724,475.87876 L 412.56619,762.93916 L 712.87563,764.16872 z" style="fill:#1b7f37;fill-opacity:1;fill-rule:evenodd;stroke:none;stroke-width:1px;stroke-linecap:butt;stroke-linejoin:miter;stroke-opacity:1"/>
      <path id="path2621" d="M 438.07412,763.2542 L 78.951401,763.2542 L 78.951401,703.92083 L 26.822622,703.92083 L 166.38997,620.06033 L 166.38997,554.0262 L 105.50475,554.0262 L 299.21721,408.05344 L 492.92959,554.0262 L 438.07412,554.0262 L 438.07412,763.2542 z" style="fill:#8b8cc2;fill-opacity:1;fill-rule:evenodd;stroke:none;stroke-width:1px;stroke-linecap:butt;stroke-linejoin:miter;stroke-opacity:1"/>
      <path id="path2629" d="M 384.12085,601.75638 C 378.95787,601.79739 373.92822,602.19313 368.97177,602.95944 L 372.40557,626.31988 C 365.95995,627.33041 359.66297,629.00442 353.82277,631.44816 L 344.98746,609.64648 C 335.87452,613.4463 327.35232,618.47656 319.76938,624.57242 L 334.64365,643.29433 C 329.66323,647.311 325.00862,651.75472 321.10842,656.82816 L 302.37086,642.46795 C 296.4176,650.20662 291.67187,658.68527 288.0639,667.91826 L 310.00311,676.4061 C 307.70994,682.22881 306.26747,688.46117 305.38548,694.84969 L 281.97354,691.78733 C 281.31722,696.64786 280.75115,701.47622 280.79128,706.5223 C 280.82949,711.333 281.3181,716.17237 281.98753,720.80531 L 305.34788,717.37142 C 306.28749,723.82036 307.88657,730.10011 310.25965,735.95596 L 288.45807,744.79119 C 292.19091,754.02339 297.08992,762.53414 303.16908,770.22751 L 321.6745,755.355 C 325.6888,760.47015 330.31124,765.09478 335.42657,769.10506 L 321.06636,787.84271 C 328.69581,793.78233 337.19563,798.71797 346.30183,802.36783 L 355.00617,780.42687 C 360.84103,782.76673 367.04244,784.55913 373.45326,785.47759 L 370.38924,808.67311 C 375.43033,809.38215 380.53124,809.89183 385.77379,809.85013 C 390.56735,809.81209 395.22319,809.32051 399.8403,808.65563 L 396.40632,785.29528 C 402.83891,784.37481 409.147,782.94676 414.99261,780.60009 L 423.82618,802.18509 C 433.06923,798.4512 441.77758,793.55778 449.479,787.47232 L 434.60648,768.967 C 439.74814,764.91544 444.55376,760.37826 448.57322,755.21317 L 467.0942,769.57504 C 473.16646,761.77526 478.15824,753.24301 481.83241,743.90483 L 459.89153,735.20041 C 462.23935,729.23902 463.85591,722.8741 464.72217,716.32207 L 487.91944,719.60259 C 488.55626,714.81104 489.14114,709.83902 489.1017,704.86761 C 489.06157,699.82153 488.41889,695.00262 487.68546,690.15328 L 464.32511,693.58716 C 463.31642,687.04947 461.67642,680.7044 459.195,674.78787 L 480.99658,665.95255 C 477.16231,656.70531 472.26304,648.19282 466.06907,640.5179 L 447.56191,655.174 C 443.50572,650.16727 438.72213,645.76701 433.59683,641.85859 L 448.17354,623.11928 C 440.40567,617.16865 431.76972,612.18937 422.50499,608.59766 L 413.80231,630.75521 C 407.8989,628.48679 401.61486,626.96072 395.14213,626.13924 L 398.41924,602.50896 C 393.7314,601.901 388.97999,601.71773 384.12085,601.75638 z M 384.78993,685.98998 C 395.75517,685.90298 404.78259,694.78805 404.86976,705.75328 C 404.95685,716.71851 396.06986,725.52944 385.10471,725.61653 C 374.13956,725.7037 365.11372,717.03495 365.02663,706.06981 C 364.93963,695.10475 373.82479,686.07707 384.78993,685.98998 z" style="fill:#ccd1d5;fill-opacity:1;stroke:none;stroke-width:7.47700024;stroke-linejoin:round;stroke-miterlimit:4;stroke-dasharray:none;stroke-opacity:1"/>
      <path id="flowRoot3516" d="M 422.86328,583.58816 L 422.0625,581.42507 L 422.97559,581.42507 L 423.35645,582.56765 C 423.50944,582.23237 423.7487,581.94835 424.07422,581.7156 C 424.39974,581.48286 424.74967,581.36648 425.12402,581.36648 C 425.52116,581.36648 425.86377,581.46821 426.15186,581.67165 C 426.43994,581.87511 426.64908,582.17215 426.7793,582.56277 C 426.9095,582.95339 426.9746,583.54096 426.97461,584.32546 L 426.97461,586.60573 L 424.30371,586.60573 L 424.30371,585.82448 L 426.03223,585.82448 L 426.03223,584.30593 C 426.03222,583.73302 426.0135,583.31554 425.97607,583.05349 C 425.93864,582.79145 425.84261,582.57823 425.68799,582.41384 C 425.53336,582.24946 425.33886,582.16726 425.10449,582.16726 C 424.73991,582.16726 424.42985,582.35525 424.17432,582.73122 C 423.91878,583.1072 423.7015,583.75906 423.52246,584.68679 L 423.15625,586.60573 L 422.21387,586.60573 L 422.62402,584.58425 C 422.66308,584.3922 422.74284,584.06016 422.86328,583.58816 L 422.86328,583.58816 z M 420.91992,581.42507 L 420.91992,586.60573 L 419.96777,586.60573 L 419.96777,581.42507 L 420.91992,581.42507 z M 415.46094,585.97585 L 414.5625,581.42507 L 415.54395,581.42507 L 416.31055,585.68777 C 416.86393,585.46967 417.21061,585.15635 417.35059,584.74782 C 417.49056,584.3393 417.56054,583.82579 417.56055,583.2073 L 417.60938,581.42507 L 418.55176,581.42507 L 418.50293,582.79714 C 418.47688,583.45795 418.4484,583.92182 418.41748,584.18874 C 418.38655,584.45567 418.30192,584.74945 418.16357,585.07009 C 418.02522,585.39073 417.82259,585.66905 417.55566,585.90505 C 417.28873,586.14105 416.8973,586.35671 416.38135,586.55202 C 415.8654,586.74734 415.12891,586.92474 414.17188,587.08425 L 414.04004,586.2737 C 414.62272,586.18907 415.09635,586.08978 415.46094,585.97585 L 415.46094,585.97585 z M 413.38086,581.42507 L 413.33203,582.35769 C 413.31575,582.66694 413.28076,582.91677 413.22705,583.1072 C 413.17334,583.29763 413.06022,583.49376 412.8877,583.69558 C 412.71517,583.8974 412.4401,584.10736 412.0625,584.32546 L 413.1709,586.05398 L 413.1709,586.60573 L 409.44043,586.60573 L 409.44043,585.82448 L 412.04297,585.82448 L 409.18164,581.42507 L 410.24121,581.42507 L 411.68164,583.72488 C 411.92578,583.54584 412.09993,583.3546 412.2041,583.15114 C 412.30827,582.9477 412.36035,582.6588 412.36035,582.28445 L 412.40918,581.42507 L 413.38086,581.42507 z M 403.84961,581.51784 C 404.4388,581.41694 405.01172,581.36648 405.56836,581.36648 C 406.64909,581.36648 407.39615,581.56668 407.80957,581.96706 C 408.22298,582.36746 408.42968,582.98106 408.42969,583.80788 L 408.42969,586.60573 L 407.49707,586.60573 L 407.49707,584.05691 C 407.49707,583.53933 407.43684,583.15929 407.31641,582.91677 C 407.19596,582.67426 406.98844,582.49034 406.69385,582.36501 C 406.39925,582.23969 405.97037,582.17703 405.40723,582.17702 C 404.96452,582.17703 404.47135,582.2226 403.92773,582.31374 L 403.84961,581.51784 z M 404.84082,583.68581 L 404.84082,586.60573 L 403.9082,586.60573 L 403.9082,583.68581 L 404.84082,583.68581 z M 400.08008,586.60573 L 398.92773,586.60573 L 396.9502,583.80788 C 396.6442,583.9739 396.46354,584.30919 396.4082,584.81374 L 396.19824,586.60573 L 395.23145,586.60573 L 395.44141,584.81374 C 395.53906,583.98041 395.8776,583.41726 396.45703,583.12429 L 395.25098,581.42507 L 396.39844,581.42507 L 398.05859,583.74441 C 398.26041,583.61095 398.4012,583.46039 398.48096,583.29275 C 398.56071,583.12511 398.62337,582.84923 398.66895,582.46511 L 398.79102,581.42507 L 399.75781,581.42507 L 399.64062,582.49441 C 399.58854,582.95339 399.48518,583.33018 399.33057,583.62478 C 399.17594,583.91938 398.9082,584.18223 398.52734,584.41335 L 400.08008,586.60573 z M 394.49414,582.08425 C 393.99609,582.08425 393.60628,582.22667 393.32471,582.5115 C 393.04313,582.79633 392.90234,583.178 392.90234,583.65652 C 392.90234,583.75092 392.91699,583.93484 392.94629,584.20827 C 393.03092,584.99604 393.07324,585.55593 393.07324,585.88796 L 393.07324,586.60573 L 392.13574,586.60573 L 392.13574,585.75613 C 392.13574,585.41107 392.10319,584.88048 392.03809,584.16433 C 392.0153,583.92345 392.00391,583.72325 392.00391,583.56374 C 392.00391,583.02664 392.22363,582.57416 392.66309,582.20632 L 391.35449,582.20632 L 391.35449,581.42507 L 394.49414,581.42507 L 394.49414,582.08425 z M 390.13867,581.42507 L 390.13867,586.60573 L 389.18652,586.60573 L 389.18652,581.42507 L 390.13867,581.42507 z M 383.52734,581.4739 C 384.02865,581.40229 384.48926,581.36648 384.90918,581.36648 C 385.95735,581.36648 386.68733,581.56912 387.09912,581.97439 C 387.5109,582.37966 387.71679,582.99083 387.7168,583.80788 L 387.7168,586.60573 L 386.78906,586.60573 L 386.78906,584.05691 C 386.78906,583.5849 386.7386,583.22846 386.6377,582.98757 C 386.53678,582.74669 386.3431,582.55138 386.05664,582.40163 C 385.77018,582.2519 385.36979,582.17703 384.85547,582.17702 C 384.50716,582.17703 384.09049,582.20958 383.60547,582.27468 L 383.52734,581.4739 z M 382.58008,581.42507 L 382.58008,584.10573 L 381.62793,584.10573 L 381.62793,581.42507 L 382.58008,581.42507 z M 374.64062,586.48366 L 374.80176,585.78542 C 374.97103,585.84402 375.15495,585.87331 375.35352,585.87331 C 375.57812,585.87331 375.73275,585.82367 375.81738,585.72439 C 375.90202,585.6251 375.94433,585.44525 375.94434,585.18484 L 375.94434,582.19656 C 375.66439,582.19656 375.32096,582.22586 374.91406,582.28445 L 374.83105,581.50808 C 375.57324,581.41368 376.32682,581.36648 377.0918,581.36648 C 377.86653,581.36648 378.46224,581.43159 378.87891,581.56179 C 379.29557,581.692 379.61376,581.93045 379.8335,582.27712 C 380.05322,582.62381 380.16308,583.13406 380.16309,583.80788 L 380.16309,586.60573 L 379.23047,586.60573 L 379.23047,584.05691 C 379.23046,583.55235 379.19222,583.18289 379.11572,582.94851 C 379.03922,582.71414 378.87239,582.52371 378.61523,582.37722 C 378.35807,582.23074 377.93326,582.1575 377.34082,582.15749 L 376.87207,582.16726 L 376.87207,585.30691 C 376.87207,585.63243 376.84196,585.88145 376.78174,586.05398 C 376.72151,586.2265 376.59619,586.3681 376.40576,586.47878 C 376.21533,586.58946 375.93131,586.6448 375.55371,586.6448 C 375.24772,586.6448 374.94336,586.59109 374.64062,586.48366 L 374.64062,586.48366 z M 366.84766,583.58816 L 366.04688,581.42507 L 366.95996,581.42507 L 367.34082,582.56765 C 367.49381,582.23237 367.73307,581.94835 368.05859,581.7156 C 368.38411,581.48286 368.73405,581.36648 369.1084,581.36648 C 369.50553,581.36648 369.84814,581.46821 370.13623,581.67165 C 370.42431,581.87511 370.63346,582.17215 370.76367,582.56277 C 370.89387,582.95339 370.95898,583.54096 370.95898,584.32546 L 370.95898,586.60573 L 368.28809,586.60573 L 368.28809,585.82448 L 370.0166,585.82448 L 370.0166,584.30593 C 370.0166,583.73302 369.99788,583.31554 369.96045,583.05349 C 369.92301,582.79145 369.82698,582.57823 369.67236,582.41384 C 369.51774,582.24946 369.32324,582.16726 369.08887,582.16726 C 368.72428,582.16726 368.41422,582.35525 368.15869,582.73122 C 367.90316,583.1072 367.68587,583.75906 367.50684,584.68679 L 367.14062,586.60573 L 366.19824,586.60573 L 366.6084,584.58425 C 366.64746,584.3922 366.72721,584.06016 366.84766,583.58816 L 366.84766,583.58816 z M 360.13867,581.42507 L 360.1582,582.26491 C 360.17773,583.12755 360.21517,583.72488 360.27051,584.05691 C 360.61556,584.05691 360.92643,583.97065 361.20312,583.79812 C 361.47981,583.62559 361.61816,583.29845 361.61816,582.81667 L 361.7207,581.42507 L 362.6582,581.42507 L 362.54102,583.05593 C 362.52148,583.33263 362.49056,583.54259 362.44824,583.68581 C 362.40592,583.82904 362.31884,583.98041 362.18701,584.13991 C 362.05517,584.29942 361.84684,584.43858 361.56201,584.55739 C 361.27718,584.67621 360.89388,584.75515 360.41211,584.79421 C 360.49349,585.14578 360.68229,585.42735 360.97852,585.63894 C 361.27474,585.85053 361.63932,585.95632 362.07227,585.95632 C 362.47265,585.95632 362.81608,585.86111 363.10254,585.67068 C 363.38899,585.48025 363.60058,585.23448 363.7373,584.93337 C 363.87402,584.63227 363.96516,584.20339 364.01074,583.64675 L 364.2207,581.42507 L 365.1582,581.42507 L 364.98242,583.34402 C 364.91406,584.06342 364.79199,584.66238 364.61621,585.14089 C 364.44042,585.61941 364.13525,586.00678 363.70068,586.303 C 363.26611,586.59922 362.7054,586.74734 362.01855,586.74734 C 361.40983,586.74734 360.89957,586.60004 360.48779,586.30544 C 360.07601,586.01085 359.76839,585.59011 359.56494,585.04323 C 359.36149,584.49636 359.25977,583.7672 359.25977,582.85573 L 359.19141,581.42507 L 360.13867,581.42507 z M 357.87305,583.25613 L 357.87305,584.84792 L 358.35156,586.60573 L 357.43848,586.60573 L 357.08203,585.3362 C 356.68164,585.3362 356.34798,585.57872 356.08105,586.06374 L 355.79297,586.60573 L 354.84082,586.60573 L 355.25098,585.80495 C 355.49512,585.32969 355.77832,585.01801 356.10059,584.86989 C 356.42285,584.72178 356.7028,584.64773 356.94043,584.64773 L 356.94043,583.28542 C 356.94043,583.00548 356.92008,582.79308 356.87939,582.64822 C 356.8387,582.50336 356.74837,582.38699 356.6084,582.29909 C 356.46842,582.21121 356.28288,582.16726 356.05176,582.16726 C 355.85319,582.16726 355.67578,582.18354 355.51953,582.21609 L 355.45117,581.4739 C 355.66927,581.40229 355.9362,581.36648 356.25195,581.36648 C 356.69466,581.36648 357.0332,581.44949 357.26758,581.6155 C 357.50195,581.78152 357.66146,581.98578 357.74609,582.22829 C 357.83073,582.47081 357.87304,582.81342 357.87305,583.25613 L 357.87305,583.25613 z M 353.66406,585.82448 L 354.48926,585.82448 L 354.48926,586.60573 L 349.5332,586.60573 L 349.5332,585.82448 L 352.73145,585.82448 L 352.73145,584.05691 C 352.73144,583.57514 352.67773,583.213 352.57031,582.97048 C 352.46289,582.72797 352.26839,582.5351 351.98682,582.39187 C 351.70524,582.24864 351.2666,582.17703 350.6709,582.17702 C 350.45931,582.17703 350.13216,582.19981 349.68945,582.24538 L 349.61133,581.4739 C 350.05078,581.40229 350.5179,581.36648 351.0127,581.36648 C 351.94368,581.36648 352.61832,581.5683 353.03662,581.97195 C 353.45491,582.3756 353.66406,582.98757 353.66406,583.80788 L 353.66406,585.82448 z" style="font-size:10px;font-style:normal;font-weight:normal;fill:#8b8cc2;fill-opacity:1;stroke:none;stroke-width:1px;stroke-linecap:butt;stroke-linejoin:miter;stroke-opacity:1;font-family:Bitstream Vera Sans" transform="matrix(8.6377252,0,0,8.6377252,-2968.2977,-4198.1307)"/>
    </g>
  </g>
</svg>
